berloni/img/call-modal-img.svg

<svg width="192" height="359" viewBox="0 0 192 359" fill="none" xmlns="http://www.w3.org/2000/svg">
<path d="M3 179.5C3 179.5 40.5367 199 93 199C145.463 199 189 179.5 189 179.5" stroke="#A19B9B" stroke-width="5" stroke-linecap="round" stroke-linejoin="round"/>
<path d="M16.5 207C16.5 207 47.7454 223 93 223C138.255 223 171.5 207 171.5 207" stroke="#A19B9B" stroke-width="4" stroke-linecap="round" stroke-linejoin="round"/>
<path d="M50.5 232C50.5 232 59.7599 242 93 242C126.24 242 134.5 235.5 134.5 235.5" stroke="#A19B9B" stroke-width="3" stroke-linecap="round" stroke-linejoin="round"/>
<path fill-rule="evenodd" clip-rule="evenodd" d="M59.8327 73.3971C62.0077 68.4371 64.5918 56.568 59.9619 44.7946C56.8395 36.855 51.4061 31.872 46.725 27.5791C41.5686 22.8502 37.3251 18.9585 38.0894 12.8744C39.5476 1.26706 59.1829 -3.44522 63.6072 2.71796C64.4568 3.90148 65.1218 7.34598 66.0283 12.0409C68.9742 27.2993 74.4701 55.7652 97.1393 62.7476C103.524 61.5424 109.47 60.8975 114.379 61.1586C117.915 61.3466 120.564 64.0912 121.467 67.5149C129.562 98.2021 142.757 152.47 140.5 161.5C138.568 169.228 96.3294 169.374 79.9293 169.137C76.0018 169.081 72.535 166.668 71.0331 163.038L41.2796 91.134C39.1851 86.0724 41.5377 80.2942 46.6413 78.3044C50.2776 76.8868 54.799 75.1789 59.8327 73.3971Z" fill="#A19B9B"/>
<path d="M75.4867 153.842L52.7049 98.082C50.6465 93.0439 52.9846 87.3087 58.0568 85.3358C71.1191 80.2549 95.2558 71.7381 109.663 72.0062C113.202 72.0721 115.872 74.8188 116.762 78.2456C123.286 103.393 133.584 146.484 131.794 153.736C130.29 159.829 98.3971 160.133 84.4128 159.97C80.4705 159.925 76.9779 157.492 75.4867 153.842Z" fill="white" stroke="#A19B9B" stroke-width="3"/>
<path d="M72.9656 158.843L46.7407 95.0472C44.665 89.9978 47.0215 84.2373 52.1083 82.2548C66.6753 76.5772 95.2423 66.415 111.674 67.0264C115.213 67.158 117.867 69.9087 118.763 73.334C126.064 101.244 137.79 149.888 135.769 158.024C134.054 164.93 97.0707 165.158 81.8653 164.957C77.93 164.905 74.4619 162.483 72.9656 158.843Z" stroke="white" stroke-width="3"/>
<path d="M113.031 83.895C114.179 87.703 114.08 91.1001 112.811 91.4826C111.541 91.8651 111.705 88.9095 110.557 85.1015C109.41 81.2934 107.386 78.0751 108.655 77.6926C109.924 77.3101 111.884 80.087 113.031 83.895Z" fill="#A19B9B"/>
<path d="M80.0186 146.898C81.7173 151.333 84.6424 154 83.0163 154.623C81.3902 155.246 78.6949 152.156 76.9962 147.721C75.2975 143.286 75.2386 139.186 76.8647 138.563C78.4908 137.94 78.3198 142.464 80.0186 146.898Z" fill="#A19B9B"/>
<circle cx="75.5" cy="107.5" r="2.5" fill="#A19B9B"/>
<circle cx="100.5" cy="100.5" r="2.5" fill="#A19B9B"/>
<circle cx="53.5" cy="13.5" r="6.5" fill="white"/>
<path d="M73.621 100.458C67.1578 101.388 72.1562 111.237 76.4561 117.553C77.1786 118.614 78.705 118.648 79.739 117.887C81.32 116.724 83.041 116.113 84.5326 115.83C85.9485 115.56 87.0946 114.128 86.5602 112.789C84.2938 107.112 79.7145 99.5811 73.621 100.458Z" stroke="#A19B9B" stroke-width="2"/>
<path d="M100.893 92.6678C94.6845 91.4799 96.1079 102.128 98.0354 109.352C98.3682 110.599 99.8108 111.133 101.045 110.753C102.801 110.213 104.509 110.187 105.929 110.381C107.358 110.577 108.913 109.596 108.845 108.156C108.561 102.173 106.746 93.7876 100.893 92.6678Z" stroke="#A19B9B" stroke-width="2"/>
<path d="M85.8215 140.159C96.336 148.542 113.341 143.375 115 130" stroke="#A19B9B" stroke-width="2" stroke-linecap="round" stroke-linejoin="round"/>
<path d="M66.4193 341.653L74.7131 325.264C76.3684 322.01 80.4602 320.756 83.8344 322.474L92.0804 326.67C92.402 326.325 92.7343 325.966 93.083 325.586C96.2945 322.126 100.689 317.386 104.488 309.873C108.3 302.343 109.521 295.979 110.417 291.332C110.511 290.84 110.6 290.366 110.693 289.913L105.16 287.103L102.438 285.715C99.0592 283.995 97.6578 279.942 99.305 276.683L107.598 260.293C109.247 257.037 113.34 255.782 116.72 257.503L121.339 259.871L121.275 259.996C122.927 261.106 124.463 262.507 125.793 264.124C127.037 265.67 128.003 267.218 128.744 268.843C134.792 281.84 132.662 296.22 121.402 318.467C105.837 349.217 86.6161 353.556 85.7836 353.733C83.9629 354.096 82.1467 354.224 80.2232 354.118C78.1554 353.999 76.1232 353.584 74.2565 352.904L74.2026 352.996L69.5531 350.691C66.1793 348.969 64.7745 344.916 66.4193 341.653Z" fill="#A19B9B"/>
</svg>

<svg width="192" height="359" fill="none" xmlns="http://www.w3.org/2000/svg"><path d="M3 179.5S40.537 199 93 199s96-19.5 96-19.5" stroke="#A19B9B" stroke-width="5" stroke-linecap="round" stroke-linejoin="round"/><path d="M16.5 207s31.245 16 76.5 16c45.255 0 78.5-16 78.5-16" stroke="#A19B9B" stroke-width="4" stroke-linecap="round" stroke-linejoin="round"/><path d="M50.5 232s9.26 10 42.5 10 41.5-6.5 41.5-6.5" stroke="#A19B9B" stroke-width="3" stroke-linecap="round" stroke-linejoin="round"/><path fill-rule="evenodd" clip-rule="evenodd" d="M59.833 73.397c2.175-4.96 4.759-16.829.129-28.602-3.123-7.94-8.556-12.923-13.237-17.216-5.156-4.729-9.4-8.62-8.636-14.705C39.548 1.267 59.183-3.446 63.607 2.718c.85 1.183 1.515 4.628 2.421 9.323 2.946 15.258 8.442 43.724 31.111 50.707 6.385-1.206 12.331-1.85 17.24-1.59 3.536.189 6.185 2.933 7.088 6.357 8.095 30.687 21.29 84.955 19.033 93.985-1.932 7.728-44.17 7.874-60.57 7.637-3.928-.056-7.395-2.469-8.897-6.099L41.28 91.134c-2.095-5.062.258-10.84 5.361-12.83a450.029 450.029 0 0 1 13.192-4.907z" fill="#A19B9B"/><path d="M75.487 153.842l-22.782-55.76c-2.058-5.038.28-10.773 5.352-12.746 13.062-5.081 37.199-13.598 51.606-13.33 3.539.066 6.209 2.813 7.099 6.24 6.524 25.147 16.822 68.238 15.032 75.49-1.504 6.093-33.397 6.397-47.381 6.234-3.942-.045-7.435-2.478-8.926-6.128z" fill="#fff" stroke="#A19B9B" stroke-width="3"/><path d="M72.966 158.843L46.74 95.047c-2.076-5.05.28-10.81 5.367-12.792 14.567-5.678 43.134-15.84 59.566-15.229 3.539.132 6.193 2.883 7.089 6.308 7.301 27.91 19.027 76.554 17.006 84.69-1.715 6.906-38.698 7.134-53.904 6.933-3.935-.052-7.403-2.474-8.9-6.114z" stroke="#fff" stroke-width="3"/><path d="M113.031 83.895c1.148 3.808 1.049 7.205-.22 7.588-1.27.382-1.106-2.574-2.254-6.382-1.147-3.808-3.171-7.026-1.902-7.408 1.269-.383 3.229 2.394 4.376 6.202zM80.019 146.898c1.698 4.435 4.623 7.102 2.997 7.725-1.626.623-4.321-2.467-6.02-6.902-1.698-4.435-1.757-8.535-.131-9.158 1.626-.623 1.455 3.901 3.154 8.335z" fill="#A19B9B"/><circle cx="75.5" cy="107.5" r="2.5" fill="#A19B9B"/><circle cx="100.5" cy="100.5" r="2.5" fill="#A19B9B"/><circle cx="53.5" cy="13.5" r="6.5" fill="#fff"/><path d="M73.621 100.458c-6.463.93-1.465 10.779 2.835 17.095.723 1.061 2.249 1.095 3.283.334 1.581-1.163 3.302-1.774 4.794-2.057 1.415-.27 2.562-1.702 2.027-3.041-2.266-5.677-6.846-13.208-12.939-12.331zM100.893 92.668c-6.209-1.188-4.785 9.46-2.858 16.684.333 1.247 1.776 1.781 3.01 1.401 1.756-.54 3.464-.566 4.884-.372 1.429.196 2.984-.785 2.916-2.225-.284-5.983-2.099-14.368-7.952-15.488z" stroke="#A19B9B" stroke-width="2"/><path d="M85.822 140.159C96.335 148.542 113.34 143.375 115 130" stroke="#A19B9B" stroke-width="2" stroke-linecap="round" stroke-linejoin="round"/><path d="M66.42 341.653l8.293-16.389c1.655-3.254 5.747-4.508 9.121-2.79l8.246 4.196c.322-.345.654-.704 1.003-1.084 3.212-3.46 7.606-8.2 11.405-15.713 3.812-7.53 5.033-13.894 5.929-18.541.094-.492.183-.966.276-1.419l-5.533-2.81-2.722-1.388c-3.379-1.72-4.78-5.773-3.133-9.032l8.293-16.39c1.649-3.256 5.742-4.511 9.122-2.79l4.619 2.368-.064.125a21.214 21.214 0 0 1 4.518 4.128c1.244 1.546 2.21 3.094 2.951 4.719 6.048 12.997 3.918 27.377-7.342 49.624-15.565 30.75-34.786 35.089-35.618 35.266-1.821.363-3.637.491-5.56.385a21.06 21.06 0 0 1-5.968-1.214l-.053.092-4.65-2.305c-3.374-1.722-4.778-5.775-3.134-9.038z" fill="#A19B9B"/></svg>
